static/images/swapspace-logo.svg

<svg height="94" viewBox="0 0 94 94" width="94" xmlns="http://www.w3.org/2000/svg"><path d="m93.4908696 46.5669565c0 25.6856522-20.9243479 46.5082609-46.7365218 46.5082609-25.8117391 0-46.73608693-20.8226087-46.73608693-46.5082609 0-25.6860869 20.92434783-46.50826085 46.73608693-46.50826085 25.8121739 0 46.7365218 20.82217395 46.7365218 46.50826085zm-18.6943479-18.9034782c0 3.3143478-2.7 6.0013043-6.0304347 6.0013043-3.3308696 0-6.0308696-2.6869565-6.0308696-6.0013043 0-3.3143479 2.7-6.0008696 6.0308696-6.0008696 3.3304347 0 6.0304347 2.6865217 6.0304347 6.0008696zm-28.3434782-.0004348c5.9952174 0 10.8547826-3.2239131 10.8547826-7.2013044 0-3.9769565-4.8595652-7.2008695-10.8547826-7.2008695-5.9947826 0-10.8547826 3.223913-10.8547826 7.2008695 0 3.9773913 4.86 7.2013044 10.8547826 7.2013044z" fill="#e35760" fill-rule="evenodd"/></svg>

<?xml version="1.0" encoding="UTF-8"?>
<svg width="94px" height="94px" viewBox="0 0 94 94" version="1.1" xmlns="http://www.w3.org/2000/svg" xmlns:xlink="http://www.w3.org/1999/xlink">
    <!-- Generator: Sketch 63.1 (92452) - https://sketch.com -->
    <title>swapspace-logo</title>
    <desc>Created with Sketch.</desc>
    <g id="Page-1" stroke="none" stroke-width="1" fill="none" fill-rule="evenodd">
        <g id="swapspace-logo" fill="#E35760">
            <path d="M93.4908696,46.5669565 C93.4908696,72.2526087 72.5665217,93.0752174 46.7543478,93.0752174 C20.9426087,93.0752174 0.0182608696,72.2526087 0.0182608696,46.5669565 C0.0182608696,20.8808696 20.9426087,0.0586956522 46.7543478,0.0586956522 C72.5665217,0.0586956522 93.4908696,20.8808696 93.4908696,46.5669565 Z M74.7965217,27.6634783 C74.7965217,30.9778261 72.0965217,33.6647826 68.766087,33.6647826 C65.4352174,33.6647826 62.7352174,30.9778261 62.7352174,27.6634783 C62.7352174,24.3491304 65.4352174,21.6626087 68.766087,21.6626087 C72.0965217,21.6626087 74.7965217,24.3491304 74.7965217,27.6634783 Z M46.4530435,27.6630435 C52.4482609,27.6630435 57.3078261,24.4391304 57.3078261,20.4617391 C57.3078261,16.4847826 52.4482609,13.2608696 46.4530435,13.2608696 C40.4582609,13.2608696 35.5982609,16.4847826 35.5982609,20.4617391 C35.5982609,24.4391304 40.4582609,27.6630435 46.4530435,27.6630435 Z" id="Shape"></path>
        </g>
    </g>
</svg>
